X:1
T:Cabin John, 87.87 D
T:Cabin John, 87.87 D
T:Horatio Richmond Palmer, 1896
T:Public Domain Courtesy of the Cyber Hymnal™
C:Horatio Richmond Palmer, 1896
Z:Public Domain
Z:Courtesy of the Cyber Hymnal™
%%score ( 1 2 ) ( 3 4 )
L:1/8
Q:1/4=100
M:3/4
K:Eb
V:1 treble 
V:2 treble 
V:3 bass 
V:4 bass 
V:1
 [EG]>[B,F] | [B,E]2 [B,E]2 [EG]>[B,F] | [B,E]2 [B,E]2 [GB]>[EG] | [DF]3 [DF] [EG][FA] | %4
 [EG]4 [EG]>[B,F] | [B,E]2 [B,E]2 [EG]>[B,F] | [B,E]2 [B,E]2 [EG]>[EG] | [DB]3 [DF] [EB][E=A] | %8
 [DB]4 [DB]>[Dc] | [FA]2 [FA]2 [FA]>[DB] | [EG]2 [EG]2 [B,E]>[B,F] | [=B,G]3 [DG] [D^F][D=A] | %12
 (G2 !fermata!B2) [EG]>[B,F] | [B,E]2 [B,E]2 [EB]>[EB] | [Ec]2 !fermata![EA]2 [Ec]>[Fc] | %15
 [GB][B,G] [CE]2 [DF]2 | E6 |] %17
V:2
 x2 | x6 | x6 | x6 | x6 | x6 | x6 | x6 | x6 | x6 | x6 | x6 | D4 x2 | x6 | x6 | x6 | E6 |] %17
V:3
 [E,B,]>[E,A,] | [E,G,]2 [E,G,]2 [E,B,]>[E,A,] | [E,G,]2 [E,G,]2 [E,B,]>[E,B,] | %3
 [B,,B,]3 [B,,B,] [B,,B,][B,,B,] | [E,B,]4 [E,B,]>[E,A,] | [E,G,]2 [E,G,]2 [E,B,]>[E,A,] | %6
 [E,G,]2 [E,G,]2 [E,B,]>[E,B,] | [F,B,]3 [F,B,] [F,C][F,C] | [B,,B,]4 [B,,B,]>[B,,B,] | %9
 [B,,B,]2 [B,,B,]2 [B,,B,]>[B,,B,] | [E,B,]2 [E,B,]2 [E,G,]>[E,A,] | [D,G,]3 [D,=B,] [D,C][D,C] | %12
 ([G,=B,]2 [F,_B,]2) [E,B,]>[E,A,] | [E,G,]2 [E,G,]2 [E,G,]>[E,G,] | %14
 A,2 !fermata![A,C]2 [A,C]>[A,D] | [G,E][E,B,] [C,=A,]2 [B,,_A,]2 | [E,G,]6 |] %17
V:4
 x2 | x6 | x6 | x6 | x6 | x6 | x6 | x6 | x6 | x6 | x6 | x6 | x6 | x6 | A,2 x4 | x6 | x6 |] %17

